Catalina-dark/actions/16/folder-new.svg

<?xml version="1.0" encoding="UTF-8" standalone="no"?>
<svg
   xmlns:dc="http://purl.org/dc/elements/1.1/"
   xmlns:cc="http://creativecommons.org/ns#"
   xmlns:rdf="http://www.w3.org/1999/02/22-rdf-syntax-ns#"
   xmlns:svg="http://www.w3.org/2000/svg"
   xmlns="http://www.w3.org/2000/svg"
   xmlns:sodipodi="http://sodipodi.sourceforge.net/DTD/sodipodi-0.dtd"
   xmlns:inkscape="http://www.inkscape.org/namespaces/inkscape"
   width="16"
   height="16"
   viewBox="0 0 4.2333332 4.2333335"
   version="1.1"
   id="svg8"
   inkscape:version="1.0.2 (e86c870879, 2021-01-15)"
   sodipodi:docname="folder-new.svg">
  <defs
     id="defs2" />
  <sodipodi:namedview
     id="base"
     pagecolor="#ffffff"
     bordercolor="#666666"
     borderopacity="1.0"
     inkscape:pageopacity="0.0"
     inkscape:pageshadow="2"
     inkscape:zoom="22.627417"
     inkscape:cx="-3.0704002"
     inkscape:cy="14.039476"
     inkscape:document-units="mm"
     inkscape:current-layer="layer1"
     showgrid="true"
     units="px"
     inkscape:window-width="1920"
     inkscape:window-height="1028"
     inkscape:window-x="0"
     inkscape:window-y="24"
     inkscape:window-maximized="1"
     inkscape:document-rotation="0">
    <inkscape:grid
       type="xygrid"
       id="grid815"
       spacingx="0.26458333"
       spacingy="0.26458333" />
  </sodipodi:namedview>
  <metadata
     id="metadata5">
    <rdf:RDF>
      <cc:Work
         rdf:about="">
        <dc:format>image/svg+xml</dc:format>
        <dc:type
           rdf:resource="http://purl.org/dc/dcmitype/StillImage" />
        <dc:title />
      </cc:Work>
    </rdf:RDF>
  </metadata>
  <g
     inkscape:label="Capa 1"
     inkscape:groupmode="layer"
     id="layer1"
     transform="translate(0,-292.76665)">
    <path
       style="opacity:1;fill:#f1f8f8;fill-opacity:1;stroke:none;stroke-width:0;stroke-linecap:round;stroke-linejoin:round;stroke-miterlimit:4;stroke-dasharray:none;stroke-opacity:1"
       d="M 1 5 L 1 12 C 1 13.108006 1.8919881 14 3 14 L 13 14 C 14.108012 14 15 13.108006 15 12 L 15 5 L 1 5 z M 2 6 L 14 6 L 14 12 C 14 12.554003 13.553987 13 13 13 L 3 13 C 2.4460136 13 2 12.554003 2 12 L 2 6 z "
       transform="matrix(0.26458333,0,0,0.26458333,0,292.76665)"
       id="rect828" />
    <path
       id="path835"
       d="m 3.9687466,294.35415 v -0.26608 c 0,-0.29316 -0.2635029,-0.52708 -0.5280845,-0.52712 L 1.8520833,293.56082 1.5875,293.29624 H 0.79374663 c -0.29316,0 -0.52916,0.236 -0.52916,0.52916 v 0.52917 m 0.26458,-4.1e-4 v -0.52918 c 0,-0.14658 0.11862033,-0.27794 0.26458,-0.26458 H 1.5875 l 0.2645833,0.26458 1.5885788,1.3e-4 c 0.146568,1e-5 0.2635045,0.11596 0.2635045,0.26254 v 0.26651"
       style="opacity:1;fill:#f1f8f8;fill-opacity:1;stroke:none;stroke-width:0;stroke-linecap:round;stroke-linejoin:round;stroke-miterlimit:4;stroke-dasharray:none;stroke-opacity:1"
       inkscape:connector-curvature="0"
       sodipodi:nodetypes="cssccssccssccssc" />
    <rect
       style="fill:#f1f8f8;fill-opacity:1;stroke:none;stroke-width:0.0519999;stroke-linecap:round;stroke-linejoin:round"
       id="rect833"
       width="0.26458311"
       height="1.0583208"
       x="1.984375"
       y="294.75104" />
    <rect
       style="fill:#f1f8f8;fill-opacity:1;stroke:none;stroke-width:0.0519999;stroke-linecap:round;stroke-linejoin:round"
       id="rect835"
       width="0.2645874"
       height="1.0583346"
       x="295.14789"
       y="-2.6458333"
       transform="rotate(90)" />
  </g>
</svg>

<svg width="16" height="16" version="1.1" viewBox="0 0 4.2333 4.2333" xmlns="http://www.w3.org/2000/svg">
<g transform="translate(0 -292.77)" fill="#f1f8f8">
<path transform="matrix(.26458 0 0 .26458 0 292.77)" d="m1 5v7c0 1.108 0.89199 2 2 2h10c1.108 0 2-0.89199 2-2v-7h-14zm1 1h12v6c0 0.554-0.44601 1-1 1h-10c-0.55399 0-1-0.446-1-1v-6z"/>
<path d="m3.9687 294.35v-0.26608c0-0.29316-0.2635-0.52708-0.52808-0.52712l-1.5886-1.3e-4 -0.26458-0.26458h-0.79375c-0.29316 0-0.52916 0.236-0.52916 0.52916v0.52917m0.26458-4.1e-4v-0.52918c0-0.14658 0.11862-0.27794 0.26458-0.26458h0.79375l0.26458 0.26458 1.5886 1.3e-4c0.14657 1e-5 0.2635 0.11596 0.2635 0.26254v0.26651"/>
<rect x="1.9844" y="294.75" width=".26458" height="1.0583"/>
<rect transform="rotate(90)" x="295.15" y="-2.6458" width=".26459" height="1.0583"/>
</g>
</svg>
